X:2
T:Polka van Perk
C:Traditioneel
O:Vlaanderen
Z:Bert Van Vreckem, 2004-05-15 <http://flanders.blackmill.net/music/>
M:2/4
L:1/8
K:C
ce ce|gf/e/ fd|Bd Bd|fe/b/ ec|ce ce|gf/e/ fd|Bd e/d/c/B/|cec2:|
|:e>f ge|f/e/d/c/ B2|f>d Bd|gf ec|e>f ge|f/e/d/c/ B2|f>d Bd|gB c2:|
